<?xml version="1.0" encoding="UTF-8"?>
<map version="1.10" tiledversion="1.11.2" orientation="orthogonal" renderorder="right-down" width="23" height="13" tilewidth="32" tileheight="32" infinite="0" nextlayerid="3" nextobjectid="1">
 <tileset firstgid="1" name="tileset_readable" tilewidth="32" tileheight="32" tilecount="190" columns="19">
  <image source="tileset_readable.png" width="608" height="326"/>
 </tileset>
 <tileset firstgid="191" name="trees 2" tilewidth="32" tileheight="32" tilecount="126" columns="21">
  <image source="trees 2.png" width="701" height="208"/>
 </tileset>
 <layer id="1" name="T1" width="23" height="13">
  <data encoding="csv">
0,0,0,0,0,0,0,0,0,0,0,0,0,0,191,192,193,194,0,0,0,0,0,
0,0,0,0,0,215,215,215,215,194,0,0,0,0,212,213,214,215,0,0,0,0,0,
0,0,0,0,0,0,215,215,215,215,0,0,0,0,233,234,235,236,0,0,0,0,0,
0,0,0,0,0,0,215,215,215,215,0,0,0,0,254,255,256,257,0,0,0,0,0,
0,0,0,0,0,0,215,215,215,215,0,0,0,0,275,276,277,278,0,0,0,0,0,
0,0,0,0,0,0,215,215,215,215,0,204,205,206,207,9,10,11,204,205,206,207,208,
0,0,0,0,0,0,296,215,215,215,0,225,226,227,228,229,0,0,225,226,227,228,229,
191,192,193,194,0,0,0,0,0,0,0,246,247,248,249,250,0,0,246,247,248,249,250,
212,213,214,215,0,0,0,0,0,0,0,267,268,269,270,271,104,0,267,268,269,270,271,
233,234,235,236,0,0,0,0,0,0,0,288,289,290,291,292,104,0,288,289,290,291,292,
254,255,256,257,0,0,0,0,0,0,0,309,310,311,312,313,104,0,309,310,311,312,313,
275,276,277,278,0,0,0,0,0,0,0,0,0,0,0,0,104,0,0,0,0,0,0,
296,297,298,299,0,0,0,0,0,0,0,0,0,0,0,0,104,0,0,0,0,0,0
</data>
 </layer>
 <layer id="2" name="T2" width="23" height="13">
  <data encoding="csv">
0,238,238,238,238,238,238,238,238,238,0,0,0,0,0,0,0,0,0,0,0,0,0,
0,0,0,0,0,0,0,0,0,0,0,0,0,0,0,0,0,0,0,0,0,0,0,
0,0,0,0,0,0,0,0,0,0,0,0,0,0,0,0,0,0,0,0,0,0,0,
0,0,0,0,0,0,0,0,0,0,0,0,0,0,0,0,0,0,0,0,0,0,0,
0,0,0,0,0,0,0,0,0,0,0,0,0,0,0,0,0,0,0,0,0,0,0,
2,2,2,2,2,2,2,2,2,2,0,0,0,0,0,0,104,0,0,0,0,0,0,
2,0,0,2,2,2,0,0,0,2,0,0,0,0,0,26,104,26,0,0,0,0,0,
0,0,0,0,0,0,0,0,0,0,0,0,0,0,0,42,104,44,0,0,0,0,0,
0,0,0,0,0,0,0,0,0,0,0,0,0,0,0,0,62,0,0,0,0,0,0,
2,2,2,2,2,2,0,0,0,0,0,0,0,0,2,2,81,2,2,2,2,0,0,
2,0,0,0,0,2,2,2,0,0,0,0,0,2,2,0,0,0,0,0,2,2,0,
0,0,0,0,0,0,0,2,2,2,2,2,2,2,0,0,0,0,0,0,0,2,2,
0,0,0,0,0,0,0,0,0,0,0,0,0,0,0,0,0,0,0,0,0,0,0
</data>
 </layer>
</map>
